X: 2
T: No_11_Song_of_Victory.krn
N: Derived from No_11_Song_of_Victory.krn
%%abc-version 2.0
%%abcx-abcm2ps-target-version 5.9.1 (29 Sep 2008)
%%abc-creator hum2abc beta
%%abcx-conversion-date 2019/03/15 08:27:55
%%humdrum-veritas 3012477621
%%humdrum-veritas-data 4098208673
%%linebreak <none>
%%barnumbers 0
L: 1/8
M: 2/4
%%staves {1 2}
V: 1 clef=bass
V: 2 clef=bass
K: Eb
[V:1] [K:clef=bass][M:2/4]z2GF | 
[V:2] [K:clef=bass][M:2/4]G,,2G,,2 | 
[V:1] EEE2 | 
[V:2] G,,2G,,2 | 
[V:1] CC C z | 
[V:2] z4 | 
[V:1] [M:3/4]EC CE/E/E2 | 
[V:2] [M:3/4]z6 | 
[V:1] [M:2/4]CC C z | 
[V:2] [M:2/4]z4 | 
[V:1] EF FF/E/ | 
[V:2] z4 | 
[V:1] CC/C/C2 | 
[V:2] z4 | 
[V:1] G,G, G,G, | 
[V:2] z4 | 
[V:1] [M:3/4]CG, G,C/C/C2 | 
[V:2] [M:3/4]z6 | 
[V:1] [M:2/4]G,G,C2 | 
[V:2] [M:2/4]z4 | 
[V:1] G,G, G,G, | 
[V:2] z4 | 
[V:1] G,2z2 | 
[V:2] z4 | 
[V:1] [M:3/4]EC CE/E/E2 | 
[V:2] [M:3/4]z6 | 
[V:1] [M:2/4]CC CC | 
[V:2] [M:2/4]z4 | 
[V:1] EF FF/E/ | 
[V:2] z4 | 
[V:1] CC/C/C2 | 
[V:2] z4 | 
[V:1] G,G, G,G, | 
[V:2] z4 | 
[V:1] [M:3/4]CG, G,C/C/C2 | 
[V:2] [M:3/4]z6 | 
[V:1] [M:2/4]G,G,C2 | 
[V:2] [M:2/4]z4 | 
[V:1] G,G,/G,/ G,/^F,/ z |]  
[V:2] z4 |]  



